X:1
T:Title
%%score { ( 1 3 ) | ( 2 4 ) }
L:1/8
M:4/4
K:F
V:1 treble nm="Grand Piano"
V:3 treble 
V:2 bass 
V:4 bass 
V:1
 z4 z2[Q:1/4=100] F>G | A2 A>[Ac] [GB]2 [GB]>[EBd] | [FAc]6 [CF]>[DFG] | F2 z2 z4 | %4
 [F,F]2- [F,-DF-]2 [F,CF]2 F>G | A2 A>c B2 [EB]>[Ed] | [Fc]6 [Fc]>[Af] | e6 z2 | c8 |[M:1/4] c>c | %10
[M:4/4] [Fd]2 [Fd]2 [Fd]2 [B,FB]>[Fd] | [Fc]2 [Ec]2 c2 d>c | B2 [EB]2 [EB]2 [Ec]>[GB] | %13
 A2 B2 c2 c>c | [Fd]2 [Fd]2 [Fd]2 [B,FB]>[Fd] | %15
[M:9/8] [Fc]2 [Ec]- [Ec] [Fc]2- [Fc][Gc]>[Gc][Q:1/4=99][Q:1/4=97][Q:1/4=96][Q:1/4=94][Q:1/4=93] | %16
 [Ff]2 [DFB]- [DFB]2 [CFA]- [CFA] [B,EG]2[Q:1/4=91][Q:1/4=90][Q:1/4=88][Q:1/4=87][Q:1/4=85][Q:1/4=84][Q:1/4=82][Q:1/4=81][Q:1/4=79][Q:1/4=78][Q:1/4=76] | %17
[M:3/4] [F,F]2- [F,-DF-]2 [F,CF]2 |] %18
V:2
 z4 z2 [F,A,C]>[F,B,C] | [F,CF]2 [F,CF]>[F,C] [C,C]2 [C,C]>C, | F,6 A,,>B,, | C,2 C,2 C,2 C,2 | %4
 z2 B,2 A,2 [F,A,C]>[F,B,C] | [F,CF]2 [F,CF]>[A,CF][K:bass] [G,CE]2 [C,G,]>[C,B,] | %6
 [F,A,]6 [F,A,]>[F,C] | [G,G]2 z2 z4[K:bass] | z2 A,4 B,2 |[M:1/4] [F,A,F]>[F,A,F] | %10
[M:4/4] [B,,B,]2 [B,,B,]2 B,->[C,B,] D,>[E,B,] | [F,A,]2 [C,G,]2[K:treble] [F,A,F]2 [B,F]>[A,CF] | %12
 [G,CE]2 [C,C]2 [G,C]2 [C,C]>[C,C] | [F,CF]2 [G,CE]2 [A,CF]2 [F,A,F]>[F,A,F] | %14
 [B,,B,]2 [B,,B,]2 B,->[C,B,] D,>[E,B,] | %15
[M:9/8] [F,A,]2 [C,G,]- [C,G,] [F,A,]2- [F,A,][E,C]>[E,C] | [D,D]2 G,,- G,,2 C,- C, C,2 | %17
[M:3/4] z2 B,2 A,2 |] %18
V:3
 x8 | x8 | x8 | [CA]2- [C-FA-]2 [CFA]2 [B,EG]2 | A,2 z2 z4 | x8 | x8 | z2 G2 G2 [=B,Fd]2 | %8
 [CE]2 F4 E2 |[M:1/4] x2 |[M:4/4] x8 | x8 | x8 | x8 | x8 |[M:9/8] x9 | x9 |[M:3/4] A,2 z2 z2 |] %18
V:4
 x8 | x8 | x8 | x8 | F,,6 z2 | x4[K:bass] x4 | x8 | C2- [G,C-]2 [G,C]2[K:bass] G,,2 | C,8 | %9
[M:1/4] x2 |[M:4/4] z4 B,,2 z2 | x4[K:treble] x4 | x8 | x8 | z4 B,,2 z2 |[M:9/8] x9 | x9 | %17
[M:3/4] F,,6 |] %18

